src/http/assets/unlocked.svg

<!DOCTYPE svg PUBLIC "-//W3C//DTD SVG 1.1//EN" "http://www.w3.org/Graphics/SVG/1.1/DTD/svg11.dtd">

<svg width="64px" height="64px" viewBox="-16 -16 64.00 64.00" fill="none" xmlns="http://www.w3.org/2000/svg" transform="rotate(0)matrix(1, 0, 0, 1, 0, 0)">

<g id="SVGRepo_bgCarrier" stroke-width="0"/>

<g id="SVGRepo_tracerCarrier" stroke-linecap="round" stroke-linejoin="round" stroke="#CCCCCC" stroke-width="0.512"/>

<g id="SVGRepo_iconCarrier"> <path d="M27 14V20C27 26.08 22.08 31 16 31C9.92 31 5 26.08 5 20V14C5 13.44 5.45 13 6 13H11H21H26C26.59 13 27 13.47 27 14Z" fill="#ff5733"/> <path d="M16 21C16.55 21 17 20.55 17 20C17 19.45 16.55 19 16 19C15.45 19 15 19.45 15 20C15 20.55 15.45 21 16 21Z" fill="#668077"/> <path d="M16 21V23M16 21C15.447 21 15 20.553 15 20C15 19.447 15.447 19 16 19C16.553 19 17 19.447 17 20C17 20.553 16.553 21 16 21ZM1 9V6C1 3.238 3.238 1 6 1C8.762 1 11 3.238 11 6V13H26C26.594 13 27 13.469 27 14V20C27 26.075 22.075 31 16 31C9.925 31 5 26.075 5 20V14C5 13.437 5.453 13 6 13H8" stroke="#000000" stroke-width="2" stroke-linecap="round" stroke-linejoin="round"/> </g>

</svg>

<svg xmlns="http://www.w3.org/2000/svg" width="64" height="64" fill="none" viewBox="-16 -16 64 64"><path fill="#ff5733" d="M27 14v6c0 6.08-4.92 11-11 11S5 26.08 5 20v-6c0-.56.45-1 1-1h20c.59 0 1 .47 1 1"/><path fill="#668077" d="M16 21c.55 0 1-.45 1-1s-.45-1-1-1-1 .45-1 1 .45 1 1 1"/><path stroke="#1a1a2e" stroke-linecap="round" stroke-linejoin="round" stroke-width="2" d="M16 21v2m0-2a1 1 0 1 1 0-2 1 1 0 1 1 0 2M1 9V6a5 5 0 0 1 5-5 5 5 0 0 1 5 5v7h15c.594 0 1 .469 1 1v6c0 6.075-4.925 11-11 11S5 26.075 5 20v-6c0-.563.453-1 1-1h2"/></svg>
